modules/hawcons-stroke/icons/icon-40-one-finger-tap.svg

<?xml version="1.0" encoding="UTF-8" standalone="no"?>
<svg width="32px" height="32px" viewBox="0 0 32 32" version="1.1" xmlns="http://www.w3.org/2000/svg" xmlns:xlink="http://www.w3.org/1999/xlink" xmlns:sketch="http://www.bohemiancoding.com/sketch/ns">
    <!-- Generator: Sketch 3.0.3 (7891) - http://www.bohemiancoding.com/sketch -->
    <title>icon 40 one finger tap</title>
    <desc>Created with Sketch.</desc>
    <defs></defs>
    <g id="Page-1" stroke="none" stroke-width="1" fill="none" fill-rule="evenodd" sketch:type="MSPage">
        <g id="icon-40-one-finger-tap" sketch:type="MSArtboardGroup" fill="#929292">
            <path d="M21,20.9809678 C22.8354094,19.4218311 24,17.096918 24,14.5 C24,9.80557939 20.1944206,6 15.5,6 C10.8055794,6 7,9.80557939 7,14.5 C7,17.096918 8.16459055,19.4218311 10,20.9809678 L10,19.5990687 C8.75882544,18.2609299 8,16.4690816 8,14.5 C8,10.3578642 11.3578642,7 15.5,7 C19.6421358,7 23,10.3578642 23,14.5 C23,16.4690816 22.2411746,18.2609299 21,19.5990687 L21,20.9809678 L21,20.9809678 L21,20.9809678 Z M15.5,10 C13.0147186,10 11,12.0135683 11,14.5050269 L11,31 L20,31 L20,14.5050269 C20,12.0169692 17.9802243,10 15.5,10 L15.5,10 Z M15.5,11 C13.5670034,11 12,12.5710144 12,14.5070349 L12,30 L19,30 L19,14.5070349 C19,12.570153 17.4290634,11 15.5,11 L15.5,11 Z M15.5,12 C14.1192881,12 13,13.1285541 13,14.5097752 L13,18 L18,18 L18,14.5097752 C18,13.1236646 16.8903379,12 15.5,12 L15.5,12 Z M15.5,13 C14.6715729,13 14,13.6785455 14,14.5008327 L14,17 L17,17 L17,14.5008327 C17,13.6719457 16.3342028,13 15.5,13 L15.5,13 Z M13,21 L13,22 L18,22 L18,21 L13,21 L13,21 Z M13,23 L13,24 L18,24 L18,23 L13,23 L13,23 Z" id="one-finger-tap" sketch:type="MSShapeGroup"></path>
        </g>
    </g>
</svg>

<svg width="32" height="32" viewBox="0 0 32 32" xmlns="http://www.w3.org/2000/svg"><path d="M21 20.981a8.5 8.5 0 1 0-11 0v-1.382a7.5 7.5 0 1 1 11 0v1.382zM15.5 10a4.5 4.5 0 0 0-4.5 4.505V31h9V14.505A4.506 4.506 0 0 0 15.5 10zm0 1a3.504 3.504 0 0 0-3.5 3.507V30h7V14.507A3.506 3.506 0 0 0 15.5 11zm0 1c-1.38 0-2.5 1.129-2.5 2.51V18h5v-3.49c0-1.386-1.11-2.51-2.5-2.51zm0 1c-.828 0-1.5.679-1.5 1.5V17h3v-2.5c0-.828-.666-1.5-1.5-1.5zM13 21v1h5v-1h-5zm0 2v1h5v-1h-5z" fill="#929292" fill-rule="evenodd"/></svg>
